X: 2166
T: Auld Maid Of Fife, The
R: jig
M: 6/8
K: Adorian
"Slow"E|AAA ABd|eed TB2g|eeB ddA|TB2A GED|
EAA ABd|edB dgf|Te2d BAG|AAA A2:|
|:e|aaa abc'|bag ec'b|Ta2g ege|dBA GED|
EAA ABd|edB dba|Tg2e dBG|AAA A2:|

